X:818
T:Woodlark
S:Colin Hume's website,  colinhume.com  - chords can also be printed below the stave.
Q:1/2=110
M:4/4
L:1/8
K:F
P:A
|: fg | "F"agfa "C7"gfeg | "F"f2c2 c2f2 | "Gm"g2a2 "Bb"b2a2 | "C"gfed c2fg |\
"F"agfa "C7"gfeg | "F"f2c2 fac2 | "Gm"B2A2 "C7"G3F | "F"F6 :|
P:B
|: cB | "F"AFAc AFAc | "Gm"BGBd BGBd | "F"Acde "Dm"fgag | "C"e4 "C7"c2ag |\
"F"fafc fafc | "C"egec egec | "Dm"faga "C7"bag3/f/ | "F"f6 :|

